X: 7196
T: Cinderella's
R: slide
M: 12/8
K: Gmajor
|:~G3 GAG ~d6|ded cBA ~d6|
ded cBA ded cBA|1 ded cBA ~G4 D2:|2 ded cBA ~G4 F2||
|:~E3 GFE B5 ^c|d^cB ed^c B5 d|
bag agf gfe dBc|1 ded cBA ~G4 F2:|2 ded cBA G6||
|:~g2f gfe d6|~c3 Bcd e3 d3|
g2a gfe d4 Bc|ded cBA G6:|

